X:212
T: Xiaoxiao shuiche chang you chang
N: C0340
O: China,Anhui, Anqing
S: III, 540, 1)]
N:  Vereinzelt Verzierungen.
R: Haozi, Cheshui haozi. Nongtian cheshui shi chang]
M: 2/4
L: 1/16
K: Bb
c2c2c2c2 | g2gbc2cc | c4g4 | c4g4 |
f2c2c2cc | g4
f3dc4 | g2gbc2cc | ggg2f4 |
f3dc4 | g2gbc2cc | ggg2f4

@@@ Tune index: 6213
